;FLAVOR:Marlin
;TIME:6168
;Filament used: 7.70397m
;Layer height: 0.25
;MINX:56.009
;MINY:10.61
;MINZ:0.15
;MAXX:211.244
;MAXY:191.914
;MAXZ:24.9
;TARGET_MACHINE.NAME:ELEGOO NEPTUNE 3 Pro
;Generated with Cura_SteamEngine 5.10.0
M140 S70
M105
M190 S70
M104 S210
M105
M109 S210
;ELEGOO NEPTUNE 3 Pro
M220 S100 ;Set the feed speed to 100%
M221 S100 ;Set the flow rate to 100%
G90
G28 ;home
;M420 S1 Z10;Uncomment to enable progressive compensation height of 10mm
G92 E0 ;Reset Extruder
G1 Z0.45 F300
G1 X1.5 Y20 F5000.0 ;Move to start position
G1 Y120.0 F600.0 E15 ;Draw the first line
G1 X0.5 F1000.0 ;Move to side a little
G1 Y20 F600 E30 ;Draw the second line
G92 E0 ;Reset Extruder
M82 ;absolute extrusion mode
G92 E0
G92 E0
G1 F1500 E-1
;LAYER_COUNT:100
;LAYER:0
M107
M204 S500
G0 F6000 X65.145 Y16.594 Z0.15
;TYPE:SKIRT
G1 F1500 E0
G1 F2100 X65.549 Y15.157 E0.05083
G1 X66.302 Y13.785 E0.10412
G1 X67.237 Y12.669 E0.15369
G1 X68.358 Y11.779 E0.20243
G1 X69.479 Y11.215 E0.24516
G1 X70.532 Y10.835 E0.28328
G1 X71.955 Y10.61 E0.33233
G1 X73.231 Y10.682 E0.37585
G1 X74.487 Y10.889 E0.41919
G1 X101.392 Y22.919 E1.42272
G1 X102.327 Y23.496 E1.46013
G1 X103.493 Y24.588 E1.51452
G1 X104.256 Y25.719 E1.56098
G1 X104.758 Y26.805 E1.60171
G1 X105.111 Y28.113 E1.64784
G1 X105.211 Y29.526 E1.69608
G1 X105.03 Y30.929 E1.74425
G1 X104.604 Y32.173 E1.78902
G1 X72.914 Y103.254 E4.43897
G1 X207.42 Y163.266 E9.45409
G1 X208.61 Y164.018 E9.50202
G1 X209.829 Y165.3 E9.56225
G1 X210.759 Y166.949 E9.62672
G1 X211.163 Y168.517 E9.68185
G1 X211.244 Y169.977 E9.73164
G1 X211.034 Y171.399 E9.78058
G1 X210.657 Y172.484 E9.8197
G1 X203.411 Y188.74 E10.42571
G1 X202.302 Y190.152 E10.48685
G1 X201.241 Y190.944 E10.53193
G1 X199.842 Y191.627 E10.58494
G1 X197.873 Y191.914 E10.65269
G1 X196.076 Y191.645 E10.71456
G1 X193.057 Y190.296 E10.82716
G1 X191.948 Y189.533 E10.87299
G1 X191.626 Y189.245 E10.8877
G1 X190.706 Y187.994 E10.94058
G1 X190.222 Y187.035 E10.97715
G1 X189.843 Y185.609 E11.02739
G1 X189.846 Y183.836 E11.08776
G1 X190.342 Y182.261 E11.14399
G1 X194.319 Y173.341 E11.47654
G1 X59.764 Y113.346 E16.49294
G1 X58.308 Y112.317 E16.55365
G1 X57.356 Y111.194 E16.60378
G1 X56.637 Y109.97 E16.65211
G1 X56.268 Y108.847 E16.69236
G1 X56.033 Y107.686 E16.7327
G1 X56.009 Y106.186 E16.78378
G1 X56.379 Y104.551 E16.84086
G1 X88.282 Y32.994 E19.50857
G1 X68.697 Y24.266 E20.23866
G1 X67.18 Y23.109 E20.30362
G1 X66.087 Y21.727 E20.36362
G1 X65.418 Y20.282 E20.41784
G1 X65.128 Y18.959 E20.46396
G1 X65.032 Y18.046 E20.49522
G1 X65.145 Y16.594 E20.54481
G0 F6000 X65.685 Y16.694
G1 F2100 X66.058 Y15.365 E20.59181
G1 X66.755 Y14.095 E20.64114
G1 X67.622 Y13.06 E20.68711
G1 X68.653 Y12.242 E20.73192
G1 X69.664 Y11.729 E20.77052
G1 X70.671 Y11.366 E20.80697
G1 X71.982 Y11.158 E20.85217
G1 X73.2 Y11.227 E20.89371
G1 X74.328 Y11.416 E20.93265
G1 X101.105 Y23.384 E21.93134
G1 X101.998 Y23.935 E21.96707
G1 X103.073 Y24.942 E22.01722
G1 X103.778 Y25.987 E22.06014
G1 X104.243 Y26.994 E22.09791
G1 X104.57 Y28.203 E22.14056
G1 X104.662 Y29.509 E22.18514
G1 X104.495 Y30.804 E22.2296
G1 X104.087 Y31.996 E22.2725
G1 X72.193 Y103.53 E24.93937
G1 X207.198 Y163.765 E29.97309
G1 X208.259 Y164.441 E30.01593
G1 X209.386 Y165.627 E30.07164
G1 X210.248 Y167.155 E30.13137
G1 X210.621 Y168.603 E30.18229
G1 X210.696 Y169.952 E30.22829
G1 X210.501 Y171.269 E30.27362
G1 X210.158 Y172.262 E30.3094
G1 X202.939 Y188.458 E30.91317
G1 X201.92 Y189.755 E30.96933
G1 X200.953 Y190.477 E31.01043
G1 X199.678 Y191.099 E31.05873
G1 X197.875 Y191.362 E31.12077
G1 X196.229 Y191.116 E31.17744
G1 X193.329 Y189.82 E31.2856
G1 X192.258 Y189.083 E31.32987
G1 X192.031 Y188.874 E31.34037
G1 X191.172 Y187.706 E31.38974
G1 X190.736 Y186.843 E31.42266
G1 X190.389 Y185.537 E31.46868
G1 X190.392 Y183.92 E31.52373
G1 X190.841 Y182.483 E31.575
G1 X195.04 Y173.065 E31.92611
G1 X60.035 Y112.869 E36.95929
G1 X58.678 Y111.91 E37.01587
G1 X57.804 Y110.879 E37.0619
G1 X57.139 Y109.746 E37.10663
G1 X56.787 Y108.676 E37.14498
G1 X56.578 Y107.63 E37.1813
G1 X56.556 Y106.244 E37.2285
G1 X56.9 Y104.723 E37.2816
G1 X89.003 Y32.718 E39.96602
G1 X68.976 Y23.792 E40.7126
G1 X67.566 Y22.717 E40.77297
G1 X66.554 Y21.437 E40.82853
G1 X65.939 Y20.109 E40.87837
G1 X65.671 Y18.902 E40.92047
G1 X65.58 Y18.037 E40.95008
G1 X65.685 Y16.694 E40.99595
G0 F6000 X66.224 Y16.794
G1 F2100 X66.568 Y15.571 E41.03921
G1 X67.206 Y14.407 E41.08441
G1 X68.007 Y13.451 E41.12687
G1 X68.949 Y12.704 E41.16781
G1 X69.849 Y12.243 E41.20224
G1 X70.81 Y11.897 E41.23702
G1 X72.01 Y11.706 E41.2784
G1 X73.11 Y11.766 E41.31591
G1 X74.168 Y11.943 E41.35243
G1 X100.818 Y23.849 E42.34631
G1 X101.669 Y24.374 E42.38035
G1 X102.653 Y25.296 E42.42627
G1 X103.3 Y26.255 E42.46566
G1 X103.729 Y27.184 E42.5005
G1 X104.028 Y28.291 E42.53955
G1 X104.113 Y29.493 E42.58058
G1 X103.96 Y30.681 E42.62136
G1 X103.588 Y31.774 E42.66067
G1 X71.472 Y103.806 E45.34611
G1 X206.905 Y164.226 E50.39571
G1 X207.91 Y164.866 E50.43628
G1 X208.943 Y165.954 E50.48736
G1 X209.737 Y167.361 E50.54237
G1 X210.079 Y168.689 E50.58907
G1 X210.148 Y169.927 E50.63129
G1 X209.968 Y171.141 E50.67308
G1 X209.659 Y172.04 E50.70545
G1 X202.467 Y188.176 E51.30698
G1 X201.537 Y189.36 E51.35825
G1 X200.668 Y190.008 E51.39516
G1 X199.514 Y190.571 E51.43888
G1 X197.877 Y190.81 E51.49521
G1 X196.382 Y190.587 E51.54668
G1 X193.601 Y189.344 E51.6504
G1 X192.568 Y188.633 E51.6931
G1 X192.438 Y188.506 E51.69929
G1 X191.638 Y187.418 E51.74527
G1 X191.25 Y186.651 E51.77454
G1 X190.935 Y185.465 E51.81632
G1 X190.938 Y184.005 E51.86603
G1 X191.34 Y182.705 E51.91237
G1 X195.761 Y172.789 E52.28204
G1 X60.306 Y112.392 E57.33201
G1 X59.048 Y111.503 E57.38446
G1 X58.252 Y110.564 E57.42638
G1 X57.641 Y109.522 E57.46751
G1 X57.306 Y108.505 E57.50397
G1 X57.123 Y107.571 E57.53637
G1 X57.103 Y106.303 E57.57955
G1 X57.422 Y104.894 E57.62874
G1 X89.724 Y32.442 E60.32982
G1 X69.255 Y23.319 E61.09288
G1 X67.952 Y22.325 E61.14869
G1 X67.023 Y21.15 E61.19969
G1 X66.46 Y19.933 E61.24535
G1 X66.214 Y18.845 E61.28333
G1 X66.128 Y18.028 E61.3113
G1 X66.224 Y16.794 E61.35345
G0 F6000 X66.764 Y16.894
G1 F2100 X67.078 Y15.777 E61.39295
G1 X67.659 Y14.716 E61.43414
G1 X68.389 Y13.845 E61.47284
G1 X69.246 Y13.166 E61.51007
G1 X70.098 Y12.729 E61.54267
G1 X70.945 Y12.428 E61.57328
G1 X72.039 Y12.254 E61.611
G1 X73.02 Y12.305 E61.64445
G1 X74.009 Y12.47 E61.67859
G1 X100.531 Y24.314 E62.66762
G1 X101.34 Y24.813 E62.69999
G1 X102.233 Y25.65 E62.74166
G1 X102.822 Y26.523 E62.77752
G1 X103.215 Y27.374 E62.80944
G1 X103.486 Y28.379 E62.84488
G1 X103.564 Y29.477 E62.88236
G1 X103.425 Y30.56 E62.91954
G1 X103.089 Y31.552 E62.95521
G1 X70.751 Y104.082 E65.65921
G1 X206.612 Y164.687 E70.72468
G1 X207.561 Y165.291 E70.76298
G1 X208.502 Y166.283 E70.80954
G1 X209.225 Y167.564 E70.85963
G1 X209.537 Y168.775 E70.90221
G1 X209.6 Y169.902 E70.94064
G1 X209.436 Y171.01 E70.97878
G1 X209.16 Y171.818 E71.00785
G1 X201.995 Y187.894 E71.60715
G1 X201.154 Y188.965 E71.65352
G1 X200.383 Y189.539 E71.68625
G1 X199.35 Y190.043 E71.72538
G1 X197.878 Y190.258 E71.77604
G1 X196.536 Y190.058 E71.82224
G1 X193.873 Y188.868 E71.92155
G1 X192.878 Y188.183 E71.96269
G1 X192.104 Y187.13 E72.00718
G1 X191.764 Y186.458 E72.03283
G1 X191.481 Y185.393 E72.07035
G1 X191.484 Y184.088 E72.11479
G1 X191.839 Y182.927 E72.15612
G1 X196.482 Y172.513 E72.54437
G1 X60.577 Y111.915 E77.61111
G1 X59.418 Y111.096 E77.65944
G1 X58.7 Y110.249 E77.69725
G1 X58.143 Y109.298 E77.73477
G1 X57.842 Y108.4 E77.76702
G1 X57.668 Y107.513 E77.7978
G1 X57.65 Y106.361 E77.83703
G1 X57.943 Y105.066 E77.88224
G1 X90.445 Y32.166 E80.60002
G1 X69.534 Y22.845 E81.37957
G1 X68.338 Y21.933 E81.43079
G1 X67.492 Y20.863 E81.47723
G1 X66.98 Y19.756 E81.51876
G1 X66.747 Y18.725 E81.55475
G1 X66.676 Y18.02 E81.57888
G1 X66.764 Y16.894 E81.61734
G0 F6000 X67.304 Y16.994
G1 F2100 X67.588 Y15.983 E81.6531
G1 X68.112 Y15.025 E81.69028
G1 X68.771 Y14.239 E81.7252
G1 X69.544 Y13.626 E81.75879
G1 X70.281 Y13.243 E81.78708
G1 X71.079 Y12.959 E81.81592
G1 X72.069 Y12.802 E81.85005
G1 X72.93 Y12.844 E81.8794
G1 X73.85 Y12.997 E81.91116
G1 X100.244 Y24.779 E82.89535
G1 X101.011 Y25.252 E82.92603
G1 X101.813 Y26.004 E82.96347
G1 X102.344 Y26.791 E82.99579
G1 X102.701 Y27.564 E83.02479
G1 X102.945 Y28.468 E83.05667
G1 X103.015 Y29.461 E83.09056
G1 X102.89 Y30.436 E83.12403
G1 X102.59 Y31.33 E83.15614
G1 X70.03 Y104.358 E85.87871
G1 X206.319 Y165.148 E90.96006
G1 X207.212 Y165.716 E90.9961
G1 X208.059 Y166.609 E91.03801
G1 X208.714 Y167.77 E91.0834
G1 X208.995 Y168.861 E91.12176
G1 X209.052 Y169.877 E91.15641
G1 X208.904 Y170.878 E91.19086
G1 X208.643 Y171.641 E91.21832
G1 X201.524 Y187.609 E91.81362
G1 X200.769 Y188.571 E91.85526
G1 X200.098 Y189.07 E91.88373
G1 X199.186 Y189.515 E91.91828
G1 X197.879 Y189.706 E91.96326
G1 X196.689 Y189.529 E92.00422
G1 X194.145 Y188.392 E92.09911
G1 X193.262 Y187.784 E92.13561
G1 X192.571 Y186.844 E92.17534
G1 X192.277 Y186.263 E92.19751
G1 X192.027 Y185.321 E92.23069
G1 X192.03 Y184.171 E92.26985
G1 X192.338 Y183.149 E92.3062
G1 X197.203 Y172.237 E92.713
G1 X60.848 Y111.438 E97.79653
G1 X59.791 Y110.691 E97.8406
G1 X59.146 Y109.93 E97.87457
G1 X58.644 Y109.073 E97.90839
G1 X58.378 Y108.295 E97.93639
G1 X58.213 Y107.455 E97.96553
G1 X58.197 Y106.419 E98.00082
G1 X58.464 Y105.238 E98.04204
G1 X91.166 Y31.89 E100.77653
G1 X69.813 Y22.371 E101.57258
G1 X68.724 Y21.541 E101.6192
G1 X67.961 Y20.576 E101.66109
G1 X67.501 Y19.58 E101.69844
G1 X67.28 Y18.604 E101.73252
G1 X67.224 Y18.01 E101.75283
G1 X67.304 Y16.994 E101.78753
G0 F6000 X67.844 Y17.092
G1 F2100 X68.097 Y16.19 E101.81943
G1 X68.565 Y15.334 E101.85265
G1 X69.153 Y14.633 E101.88381
G1 X69.84 Y14.088 E101.91366
G1 X70.533 Y13.728 E101.94026
G1 X71.214 Y13.49 E101.96482
G1 X72.099 Y13.35 E101.99533
G1 X72.841 Y13.383 E102.02062
G1 X73.69 Y13.524 E102.04992
G1 X100.021 Y25.278 E103.03177
G1 X100.679 Y25.689 E103.05818
G1 X101.393 Y26.358 E103.0915
G1 X101.866 Y27.059 E103.1203
G1 X102.187 Y27.754 E103.14636
G1 X102.403 Y28.556 E103.17464
G1 X102.466 Y29.445 E103.20499
G1 X102.354 Y30.317 E103.23493
G1 X102.091 Y31.108 E103.26331
G1 X69.309 Y104.634 E106.00444
G1 X206.026 Y165.609 E111.10167
G1 X206.863 Y166.141 E111.13544
G1 X207.616 Y166.935 E111.1727
G1 X208.203 Y167.976 E111.21339
G1 X208.453 Y168.947 E111.24753
G1 X208.504 Y169.852 E111.2784
G1 X208.371 Y170.749 E111.30927
G1 X208.144 Y171.419 E111.33336
G1 X201.053 Y187.324 E111.92631
G1 X200.384 Y188.177 E111.96322
G1 X199.813 Y188.601 E111.98744
G1 X199.022 Y188.987 E112.01741
G1 X197.88 Y189.154 E112.05671
G1 X196.846 Y189 E112.0923
G1 X194.413 Y187.913 E112.18304
G1 X193.646 Y187.385 E112.21475
G1 X193.038 Y186.558 E112.2497
G1 X192.79 Y186.068 E112.2684
G1 X192.573 Y185.25 E112.29721
G1 X192.576 Y184.25 E112.33126
G1 X192.837 Y183.371 E112.36248
G1 X197.924 Y171.961 E112.78786
G1 X61.119 Y110.961 E117.88817
G1 X60.164 Y110.286 E117.92799
G1 X59.592 Y109.611 E117.95812
G1 X59.143 Y108.845 E117.98835
G1 X58.895 Y108.119 E118.01447
G1 X58.758 Y107.4 E118.03939
G1 X58.744 Y106.478 E118.07079
G1 X58.986 Y105.409 E118.10811
G1 X91.887 Y31.614 E120.85926
G1 X70.092 Y21.898 E121.67178
G1 X69.11 Y21.149 E121.71384
G1 X68.43 Y20.289 E121.75117
G1 X68.021 Y19.402 E121.78442
G1 X67.824 Y18.553 E121.8141
G1 X67.772 Y18.002 E121.83295
G1 X67.844 Y17.092 E121.86403
G0 F6000 X68.384 Y17.19
G1 F2100 X68.606 Y16.397 E121.89207
G1 X69.018 Y15.643 E121.92133
G1 X69.533 Y15.029 E121.94861
G1 X70.14 Y14.547 E121.975
G1 X70.713 Y14.244 E121.99707
G1 X71.352 Y14.021 E122.02012
G1 X72.127 Y13.898 E122.04684
G1 X72.752 Y13.922 E122.06814
G1 X73.53 Y14.051 E122.09499
G1 X99.798 Y25.777 E123.07449
G1 X100.348 Y26.126 E123.09667
G1 X100.973 Y26.712 E123.12584
G1 X101.388 Y27.327 E123.1511
G1 X101.673 Y27.944 E123.17424
G1 X101.862 Y28.644 E123.19893
G1 X101.917 Y29.428 E123.22569
G1 X101.818 Y30.197 E123.25209
G1 X101.592 Y30.886 E123.27678
G1 X68.602 Y104.878 E126.03529
G1 X68.668 Y104.946 E126.03852
G1 X205.733 Y166.07 E131.14863
G1 X206.514 Y166.566 E131.18014
G1 X207.173 Y167.261 E131.21275
G1 X207.692 Y168.182 E131.24874
G1 X207.911 Y169.033 E131.27867
G1 X207.956 Y169.827 E131.30574
G1 X207.838 Y170.619 E131.33301
G1 X207.645 Y171.197 E131.35376
G1 X200.582 Y187.039 E131.94436
G1 X199.997 Y187.785 E131.97664
G1 X199.531 Y188.131 E131.99641
G1 X198.858 Y188.459 E132.0219
G1 X197.881 Y188.602 E132.05552
G1 X196.999 Y188.471 E132.08588
G1 X194.685 Y187.437 E132.17218
G1 X194.03 Y186.986 E132.19926
G1 X193.478 Y186.235 E132.231
G1 X193.318 Y185.928 E132.24278
G1 X193.119 Y185.179 E132.26917
G1 X193.122 Y184.329 E132.29812
G1 X193.336 Y183.593 E132.32421
G1 X198.645 Y171.685 E132.76815
G1 X61.39 Y110.484 E137.88524
G1 X60.537 Y109.881 E137.92081
G1 X60.038 Y109.292 E137.9471
G1 X59.642 Y108.616 E137.97378
G1 X59.431 Y108.017 E137.9954
G1 X59.303 Y107.347 E138.01863
G1 X59.291 Y106.536 E138.04624
G1 X59.507 Y105.581 E138.07958
G1 X92.608 Y31.338 E140.84744
G1 X70.371 Y21.424 E141.67645
G1 X69.496 Y20.757 E141.71391
G1 X68.899 Y20.002 E141.74669
G1 X68.539 Y19.222 E141.77594
G1 X68.368 Y18.502 E141.80114
G1 X68.32 Y17.994 E141.81851
G1 X68.384 Y17.19 E141.84597
G0 F6000 X68.924 Y17.288
G1 F2100 X69.115 Y16.603 E141.87019
G1 X69.471 Y15.952 E141.89545
G1 X69.913 Y15.425 E141.91887
G1 X70.442 Y15.005 E141.94187
G1 X70.968 Y14.727 E141.96213
G1 X71.486 Y14.552 E141.98075
G1 X72.157 Y14.446 E142.00388
G1 X72.662 Y14.461 E142.02108
G1 X73.372 Y14.579 E142.04559
G1 X99.505 Y26.238 E143.01996
G1 X100.015 Y26.562 E143.04053
G1 X100.553 Y27.066 E143.06563
G1 X100.91 Y27.595 E143.08736
G1 X101.158 Y28.133 E143.10754
G1 X101.321 Y28.734 E143.12874
G1 X101.368 Y29.411 E143.15185
G1 X101.282 Y30.081 E143.17485
G1 X101.093 Y30.664 E143.19572
G1 X68.091 Y104.683 E145.95523
G1 X68.056 Y104.964 E145.96487
G1 X68.106 Y105.147 E145.97133
G1 X68.347 Y105.401 E145.98325
G1 X205.44 Y166.531 E151.09432
G1 X206.165 Y166.991 E151.12356
G1 X206.73 Y167.587 E151.15152
G1 X207.181 Y168.388 E151.18282
G1 X207.369 Y169.119 E151.20852
G1 X207.408 Y169.802 E151.23182
G1 X207.305 Y170.494 E151.25564
G1 X207.146 Y170.975 E151.27289
G1 X200.11 Y186.757 E151.86125
G1 X199.613 Y187.39 E151.88866
G1 X199.291 Y187.64 E151.90254
G1 X198.693 Y187.932 E151.9252
G1 X197.882 Y188.05 E151.9531
G1 X197.152 Y187.942 E151.97823
G1 X194.957 Y186.961 E152.06009
G1 X194.416 Y186.588 E152.08247
G1 X193.918 Y185.911 E152.11108
G1 X193.83 Y185.729 E152.11797
G1 X193.665 Y185.108 E152.13985
G1 X193.668 Y184.409 E152.16365
G1 X193.835 Y183.815 E152.18466
G1 X199.366 Y171.409 E152.64716
G1 X61.661 Y110.007 E157.78104
G1 X60.91 Y109.476 E157.81235
G1 X60.484 Y108.973 E157.8348
G1 X60.139 Y108.385 E157.85801
G1 X59.946 Y107.836 E157.87783
G1 X59.848 Y107.294 E157.89658
G1 X59.838 Y106.594 E157.92042
G1 X60.028 Y105.753 E157.94978
G1 X93.329 Y31.062 E160.73434
G1 X70.65 Y20.951 E161.57983
G1 X69.882 Y20.365 E161.61272
G1 X69.367 Y19.714 E161.64098
G1 X69.058 Y19.043 E161.66614
G1 X68.912 Y18.45 E161.68693
G1 X68.868 Y17.986 E161.7028
G1 X68.924 Y17.288 E161.72665
G1 F1500 E160.72665
G0 F6000 X69.99 Y17.531
G1 F1500 E161.72665
G1 F2100 X70.133 Y17.017 E161.74481
G1 X70.349 Y16.604 E161.76068
G1 X70.644 Y16.239 E161.77666
G1 X71.001 Y15.944 E161.79243
G1 X71.399 Y15.727 E161.80787
G1 X71.739 Y15.611 E161.8201
G1 X72.19 Y15.539 E161.83565
G1 X72.482 Y15.539 E161.84559
G1 X73.056 Y15.635 E161.86541
G1 X98.999 Y27.204 E162.83262
G1 X99.31 Y27.399 E162.84512
G1 X99.721 Y27.783 E162.86427
G1 X99.93 Y28.075 E162.8765
G1 X100.107 Y28.429 E162.88998
G1 X100.236 Y28.871 E162.90566
G1 X100.276 Y29.335 E162.92151
G1 X100.226 Y29.796 E162.9373
G1 X100.074 Y30.274 E162.95438
G1 X67.042 Y104.353 E165.71618
G1 X66.973 Y104.626 E165.72577
G1 X66.952 Y105.037 E165.73978
G1 X67.006 Y105.35 E165.75059
G1 X67.116 Y105.639 E165.76112
G1 X67.288 Y105.913 E165.77214
G1 X67.511 Y106.147 E165.78314
G1 X67.807 Y106.357 E165.7955
G1 X204.996 Y167.529 E170.91014
G1 X205.462 Y167.837 E170.92916
G1 X205.847 Y168.244 E170.94824
G1 X206.159 Y168.796 E170.96983
